static/img/in-field/dropdown-disabled.svg

<svg fill="none" height="58" viewBox="0 0 179 58" width="179" xmlns="http://www.w3.org/2000/svg"><g opacity=".4"><path d="m.5.5h178v57h-178z" fill="#fff"/><path d="m19.1484 38v-15.7051h1.8262v14.0723h6.9717v1.6328zm13.2588-11.7734v11.7734h-1.7832v-11.7734zm-.8701-4.4043c.2936 0 .5443.0966.752.29.2148.1862.3222.4798.3222.8809 0 .3938-.1074.6875-.3222.8808-.2077.1934-.4584.2901-.752.2901-.3079 0-.5657-.0967-.7734-.2901-.2005-.1933-.3008-.487-.3008-.8808 0-.4011.1003-.6947.3008-.8809.2077-.1934.4655-.29.7734-.29zm12.5176 12.955c0 .752-.1898 1.3858-.5693 1.9014-.3724.5085-.9096.8916-1.6114 1.1494-.6946.2578-1.5254.3867-2.4922.3867-.8235 0-1.5361-.0644-2.1377-.1933-.6015-.1289-1.1279-.3115-1.5791-.5479v-1.6435c.4799.2363 1.0528.4511 1.7188.6445s1.3463.29 2.041.29c1.0169 0 1.7546-.1647 2.2129-.4941s.6875-.777.6875-1.3428c0-.3222-.0931-.6051-.2793-.8486-.179-.2506-.4834-.4906-.9131-.7197-.4297-.2364-1.0241-.4942-1.7832-.7735-.7519-.2864-1.4036-.5693-1.9551-.8486-.5442-.2865-.9668-.6338-1.2675-1.042-.2937-.4082-.4405-.9381-.4405-1.5898 0-.9955.4011-1.7582 1.2031-2.2881.8093-.5371 1.8692-.8057 3.1797-.8057.709 0 1.3715.0716 1.9873.2149.6231.136 1.2032.3222 1.7403.5586l-.6016 1.4287c-.487-.2077-1.0062-.3832-1.5576-.5264s-1.1136-.2148-1.6865-.2148c-.8236 0-1.4574.136-1.9014.4082-.4368.2721-.6553.6445-.6553 1.1171 0 .3653.1003.6661.3008.9024.2077.2363.5371.4583.9883.666s1.0456.4512 1.7832.7305c.7376.2721 1.375.555 1.9121.8486.5371.2865.9489.6374 1.2354 1.0527.2936.4082.4404.9346.4404 1.5791zm6.9209 1.9766c.2936 0 .5944-.0251.9023-.0752.308-.0501.5586-.111.752-.1826v1.3857c-.2077.0931-.4977.1719-.8701.2364-.3653.0644-.7233.0966-1.0743.0966-.623 0-1.1888-.1074-1.6972-.3222-.5085-.222-.9167-.5944-1.2246-1.1172-.3008-.5228-.4512-1.2461-.4512-2.1699v-6.9825h-1.6758v-.8701l1.6865-.6982.709-2.5567h1.0742v2.7286h3.4483v1.3964h-3.4483v6.9288c0 .7376.1683 1.289.5049 1.6543.3438.3652.7985.5478 1.3643.5478zm21.4902-14.459-5.6396 15.7051h-1.8369l-5.6397-15.7051h1.9121l3.6738 10.3447c.1504.4154.2829.8129.3975 1.1924.1218.3796.2292.7448.3223 1.0957s.1754.6911.247 1.0205c.0717-.3294.154-.6696.2471-1.0205.0931-.358.2005-.7269.3223-1.1064.1217-.3867.2578-.7914.4082-1.2139l3.6523-10.3125zm6.5449 3.7383c1.4037 0 2.4457.3151 3.126.9453.6804.6302 1.0205 1.6364 1.0205 3.0186v8.0029h-1.2998l-.3437-1.7402h-.086c-.3294.4297-.6731.7913-1.0312 1.0849-.3581.2865-.7735.5049-1.2461.6553-.4655.1432-1.0384.2148-1.7188.2148-.7161 0-1.3535-.1253-1.9121-.3759-.5514-.2507-.9883-.6302-1.3105-1.1387-.3151-.5085-.4727-1.153-.4727-1.9336 0-1.1745.4655-2.0768 1.3965-2.707s2.349-.974 4.2539-1.0313l2.0303-.0859v-.7197c0-1.017-.2184-1.7295-.6553-2.1377-.4368-.4082-1.0527-.6123-1.8476-.6123-.6159 0-1.2032.0895-1.7618.2685-.5585.179-1.0885.3903-1.5898.6338l-.5479-1.3535c.53-.2722 1.1387-.5049 1.8262-.6983.6875-.1933 1.4108-.29 2.1699-.29zm2.3848 6.166-1.7939.0752c-1.4681.0573-2.503.2972-3.1045.7197-.6016.4226-.9024 1.0205-.9024 1.794 0 .6732.2041 1.1709.6123 1.4931.4082.3223.9489.4834 1.6221.4834 1.0456 0 1.9014-.29 2.5674-.8701.666-.58.999-1.4502.999-2.6103zm7.4795 5.8008h-1.7939v-16.7148h1.7939zm13.742-11.7734v11.7734h-1.461l-.258-1.6543h-.096c-.244.4082-.559.752-.9456 1.0313-.3867.2792-.8235.4869-1.3105.623-.4798.1432-.9919.2148-1.5361.2148-.931 0-1.7116-.1503-2.3418-.4511s-1.1065-.7663-1.4287-1.3965c-.3151-.6302-.4727-1.4395-.4727-2.4277v-7.7129h1.8047v7.5839c0 .9812.222 1.7152.666 2.2022.444.4798 1.1208.7197 2.0303.7197.8737 0 1.5683-.1647 2.084-.4941.5227-.3294.8984-.8128 1.1274-1.4502.23-.6445.344-1.4323.344-2.3633v-6.1982zm8.554-.2149c1.003 0 1.862.222 2.578.666s1.264 1.0671 1.644 1.8692c.379.7949.569 1.7259.569 2.7929v1.1065h-8.132c.022 1.3822.365 2.4349 1.031 3.1582s1.604 1.085 2.815 1.085c.745 0 1.403-.0681 1.976-.2041.573-.1361 1.168-.3366 1.784-.6016v1.5683c-.595.265-1.186.4584-1.773.5801-.58.1218-1.267.1826-2.062.1826-1.132 0-2.12-.2291-2.965-.6875-.838-.4655-1.49-1.1458-1.955-2.041-.466-.8952-.699-1.9909-.699-3.2871 0-1.2676.212-2.3633.634-3.2871.43-.931 1.031-1.6471 1.805-2.1484.78-.5013 1.697-.752 2.75-.752zm-.022 1.461c-.952 0-1.711.3115-2.277.9345-.566.6231-.902 1.4932-1.01 2.6104h6.231c-.007-.7018-.118-1.3177-.333-1.8477-.208-.5371-.527-.9525-.956-1.2461-.43-.3008-.981-.4511-1.655-.4511z" fill="#353a40"/><path d="m.5.5h178v57h-178z" stroke="#cbcdd6"/></g></svg>

<svg width="179" height="58" viewBox="0 0 179 58" fill="none" xmlns="http://www.w3.org/2000/svg"><g opacity=".4"><rect x=".5" y=".5" width="178" height="57" fill="#fff"/><path d="M19.1484 38V22.2949H20.9746V36.3672H27.9463V38H19.1484ZM32.4072 26.2266V38H30.624V26.2266H32.4072ZM31.5371 21.8223C31.8307 21.8223 32.0814 21.9189 32.2891 22.1123C32.5039 22.2985 32.6113 22.5921 32.6113 22.9932C32.6113 23.387 32.5039 23.6807 32.2891 23.874C32.0814 24.0674 31.8307 24.1641 31.5371 24.1641C31.2292 24.1641 30.9714 24.0674 30.7637 23.874C30.5632 23.6807 30.4629 23.387 30.4629 22.9932C30.4629 22.5921 30.5632 22.2985 30.7637 22.1123C30.9714 21.9189 31.2292 21.8223 31.5371 21.8223ZM44.0547 34.7773C44.0547 35.5293 43.8649 36.1631 43.4854 36.6787C43.113 37.1872 42.5758 37.5703 41.874 37.8281C41.1794 38.0859 40.3486 38.2148 39.3818 38.2148C38.5583 38.2148 37.8457 38.1504 37.2441 38.0215C36.6426 37.8926 36.1162 37.71 35.665 37.4736V35.8301C36.1449 36.0664 36.7178 36.2812 37.3838 36.4746C38.0498 36.668 38.7301 36.7646 39.4248 36.7646C40.4417 36.7646 41.1794 36.5999 41.6377 36.2705C42.096 35.9411 42.3252 35.4935 42.3252 34.9277C42.3252 34.6055 42.2321 34.3226 42.0459 34.0791C41.8669 33.8285 41.5625 33.5885 41.1328 33.3594C40.7031 33.123 40.1087 32.8652 39.3496 32.5859C38.5977 32.2995 37.946 32.0166 37.3945 31.7373C36.8503 31.4508 36.4277 31.1035 36.127 30.6953C35.8333 30.2871 35.6865 29.7572 35.6865 29.1055C35.6865 28.11 36.0876 27.3473 36.8896 26.8174C37.6989 26.2803 38.7588 26.0117 40.0693 26.0117C40.7783 26.0117 41.4408 26.0833 42.0566 26.2266C42.6797 26.3626 43.2598 26.5488 43.7969 26.7852L43.1953 28.2139C42.7083 28.0062 42.1891 27.8307 41.6377 27.6875C41.0863 27.5443 40.5241 27.4727 39.9512 27.4727C39.1276 27.4727 38.4938 27.6087 38.0498 27.8809C37.613 28.153 37.3945 28.5254 37.3945 28.998C37.3945 29.3633 37.4948 29.6641 37.6953 29.9004C37.903 30.1367 38.2324 30.3587 38.6836 30.5664C39.1348 30.7741 39.7292 31.0176 40.4668 31.2969C41.2044 31.569 41.8418 31.8519 42.3789 32.1455C42.916 32.432 43.3278 32.7829 43.6143 33.1982C43.9079 33.6064 44.0547 34.1328 44.0547 34.7773ZM50.9756 36.7539C51.2692 36.7539 51.57 36.7288 51.8779 36.6787C52.1859 36.6286 52.4365 36.5677 52.6299 36.4961V37.8818C52.4222 37.9749 52.1322 38.0537 51.7598 38.1182C51.3945 38.1826 51.0365 38.2148 50.6855 38.2148C50.0625 38.2148 49.4967 38.1074 48.9883 37.8926C48.4798 37.6706 48.0716 37.2982 47.7637 36.7754C47.4629 36.2526 47.3125 35.5293 47.3125 34.6055V27.623H45.6367V26.7529L47.3232 26.0547L48.0322 23.498H49.1064V26.2266H52.5547V27.623H49.1064V34.5518C49.1064 35.2894 49.2747 35.8408 49.6113 36.2061C49.9551 36.5713 50.4098 36.7539 50.9756 36.7539ZM72.4658 22.2949L66.8262 38H64.9893L59.3496 22.2949H61.2617L64.9355 32.6396C65.0859 33.055 65.2184 33.4525 65.333 33.832C65.4548 34.2116 65.5622 34.5768 65.6553 34.9277C65.7484 35.2786 65.8307 35.6188 65.9023 35.9482C65.974 35.6188 66.0563 35.2786 66.1494 34.9277C66.2425 34.5697 66.3499 34.2008 66.4717 33.8213C66.5934 33.4346 66.7295 33.0299 66.8799 32.6074L70.5322 22.2949H72.4658ZM79.0107 26.0332C80.4144 26.0332 81.4564 26.3483 82.1367 26.9785C82.8171 27.6087 83.1572 28.6149 83.1572 29.9971V38H81.8574L81.5137 36.2598H81.4277C81.0983 36.6895 80.7546 37.0511 80.3965 37.3447C80.0384 37.6312 79.623 37.8496 79.1504 38C78.6849 38.1432 78.112 38.2148 77.4316 38.2148C76.7155 38.2148 76.0781 38.0895 75.5195 37.8389C74.9681 37.5882 74.5312 37.2087 74.209 36.7002C73.8939 36.1917 73.7363 35.5472 73.7363 34.7666C73.7363 33.5921 74.2018 32.6898 75.1328 32.0596C76.0638 31.4294 77.4818 31.0856 79.3867 31.0283L81.417 30.9424V30.2227C81.417 29.2057 81.1986 28.4932 80.7617 28.085C80.3249 27.6768 79.709 27.4727 78.9141 27.4727C78.2982 27.4727 77.7109 27.5622 77.1523 27.7412C76.5938 27.9202 76.0638 28.1315 75.5625 28.375L75.0146 27.0215C75.5446 26.7493 76.1533 26.5166 76.8408 26.3232C77.5283 26.1299 78.2516 26.0332 79.0107 26.0332ZM81.3955 32.1992L79.6016 32.2744C78.1335 32.3317 77.0986 32.5716 76.4971 32.9941C75.8955 33.4167 75.5947 34.0146 75.5947 34.7881C75.5947 35.4613 75.7988 35.959 76.207 36.2812C76.6152 36.6035 77.1559 36.7646 77.8291 36.7646C78.8747 36.7646 79.7305 36.4746 80.3965 35.8945C81.0625 35.3145 81.3955 34.4443 81.3955 33.2842V32.1992ZM88.875 38H87.0811V21.2852H88.875V38ZM102.617 26.2266V38H101.156L100.898 36.3457H100.802C100.558 36.7539 100.243 37.0977 99.8564 37.377C99.4697 37.6562 99.0329 37.8639 98.5459 38C98.0661 38.1432 97.554 38.2148 97.0098 38.2148C96.0788 38.2148 95.2982 38.0645 94.668 37.7637C94.0378 37.4629 93.5615 36.9974 93.2393 36.3672C92.9242 35.737 92.7666 34.9277 92.7666 33.9395V26.2266H94.5713V33.8105C94.5713 34.7917 94.7933 35.5257 95.2373 36.0127C95.6813 36.4925 96.3581 36.7324 97.2676 36.7324C98.1413 36.7324 98.8359 36.5677 99.3516 36.2383C99.8743 35.9089 100.25 35.4255 100.479 34.7881C100.709 34.1436 100.823 33.3558 100.823 32.4248V26.2266H102.617ZM111.171 26.0117C112.174 26.0117 113.033 26.2337 113.749 26.6777C114.465 27.1217 115.013 27.7448 115.393 28.5469C115.772 29.3418 115.962 30.2728 115.962 31.3398V32.4463H107.83C107.852 33.8285 108.195 34.8812 108.861 35.6045C109.527 36.3278 110.465 36.6895 111.676 36.6895C112.421 36.6895 113.079 36.6214 113.652 36.4854C114.225 36.3493 114.82 36.1488 115.436 35.8838V37.4521C114.841 37.7171 114.25 37.9105 113.663 38.0322C113.083 38.154 112.396 38.2148 111.601 38.2148C110.469 38.2148 109.481 37.9857 108.636 37.5273C107.798 37.0618 107.146 36.3815 106.681 35.4863C106.215 34.5911 105.982 33.4954 105.982 32.1992C105.982 30.9316 106.194 29.8359 106.616 28.9121C107.046 27.9811 107.647 27.265 108.421 26.7637C109.201 26.2624 110.118 26.0117 111.171 26.0117ZM111.149 27.4727C110.197 27.4727 109.438 27.7842 108.872 28.4072C108.306 29.0303 107.97 29.9004 107.862 31.0176H114.093C114.086 30.3158 113.975 29.6999 113.76 29.1699C113.552 28.6328 113.233 28.2174 112.804 27.9238C112.374 27.623 111.823 27.4727 111.149 27.4727Z" fill="#353A40"/><rect x=".5" y=".5" width="178" height="57" stroke="#CBCDD6"/></g></svg>
